www/assets/icons/headphones.svg

<svg width="24" height="24" viewBox="0 0 24 24" xmlns="http://www.w3.org/2000/svg" fill='currentColor'><path d="M12 3C7.03 3 3 7.03 3 12V19C3 20.1 3.9 21 5 21H9V13H5V12C5 8.13 8.13 5 12 5C15.87 5 19 8.13 19 12V13H15V21H19C20.1 21 21 20.1 21 19V12C21 7.03 16.97 3 12 3Z"/></svg>

<svg xmlns="http://www.w3.org/2000/svg" width="24" height="24" viewBox="0 0 24 24" fill='currentColor'><path d="M12 3a9 9 0 0 0-9 9v7c0 1.1.9 2 2 2h4v-8H5v-1c0-3.87 3.13-7 7-7s7 3.13 7 7v1h-4v8h4c1.1 0 2-.9 2-2v-7a9 9 0 0 0-9-9"/></svg>
